X:238
T:Jacky Tan
C:Norman Blake
N:Arranged for guitar by Mike Stangeland 
R:bluegrass
L:1/8
Q:1/4=220
M:4/4
K:A
z6 Bd |: "Em"e2 ed ef =ge | "G"d2 B2 B2 d=c | "D"AB de f2 ef | "A"d2 A2 A2 Bd | 
"Em"e2 ef "G"=g2 fe | dB =GB d2 =cB | "D"A=G FE DE FA |1 =G2 E2 E2 Bd :|2 =G2 E2 E2 GA | 
|: "Em"B=G EG BG EG | BA =GF E2 FG | "D"AF DF AF DF | A=G FE D2 EF | "Em"=GF GB =g2 fe | 
dB =GB d2 =cB | "D"A=G FE DE FA |1 =G2 E2 E2 GA :|2 =G2 E2 E4 | 


